src/assets/filled/Forward15Seconds.svg

<svg width="24" height="24" viewBox="0 0 24 24"  xmlns="http://www.w3.org/2000/svg">
<path d="M14.4299 16.9201H12.1399C11.7299 16.9201 11.3899 16.5801 11.3899 16.1701C11.3899 15.7601 11.7299 15.4201 12.1399 15.4201H14.4299C14.8599 15.4201 15.2099 15.0701 15.2099 14.6401C15.2099 14.2101 14.8599 13.8601 14.4299 13.8601H12.1399C11.8999 13.8601 11.6699 13.7401 11.5299 13.5501C11.3899 13.3601 11.3499 13.1001 11.4299 12.8701L12.1899 10.5801C12.2899 10.2701 12.5799 10.0701 12.8999 10.0701H15.9599C16.3699 10.0701 16.7099 10.4101 16.7099 10.8201C16.7099 11.2301 16.3699 11.5701 15.9599 11.5701H13.4399L13.1799 12.3601H14.4299C15.6899 12.3601 16.7099 13.3801 16.7099 14.6401C16.7099 15.9001 15.6799 16.9201 14.4299 16.9201Z" />
<path d="M9.53992 16.9201C9.12992 16.9201 8.78992 16.5801 8.78992 16.1701V12.7801L8.59992 13.0001C8.31992 13.3101 7.84992 13.3301 7.53992 13.0601C7.23992 12.7801 7.20992 12.3101 7.48992 12.0001L8.98992 10.3301C9.19992 10.1001 9.52992 10.0201 9.81992 10.1301C10.1099 10.2401 10.2999 10.5201 10.2999 10.8301V16.1801C10.2899 16.5901 9.95992 16.9201 9.53992 16.9201Z" />
<path d="M19.6901 7.35002C19.4401 7.02002 18.9701 6.95002 18.6401 7.20002C18.3101 7.45002 18.2401 7.92002 18.4901 8.25002C19.5701 9.69002 20.1401 11.37 20.1401 13.11C20.1401 17.6 16.4901 21.25 12.0001 21.25C7.5101 21.25 3.8601 17.6 3.8601 13.11C3.8601 8.62002 7.5101 4.98002 12.0001 4.98002C12.5801 4.98002 13.1701 5.05002 13.8101 5.20002C13.8401 5.21002 13.8701 5.20002 13.9001 5.20002C13.9301 5.20002 13.9501 5.22002 13.9701 5.22002C14.0001 5.22002 14.0201 5.21002 14.0501 5.21002C14.0801 5.21002 14.1101 5.20002 14.1501 5.19002C14.2101 5.18002 14.2601 5.15002 14.3101 5.13002C14.3401 5.11002 14.3701 5.10002 14.4001 5.08002C14.4101 5.07002 14.4301 5.07002 14.4401 5.06002C14.4701 5.04002 14.4801 5.01002 14.5001 4.99002C14.5401 4.95002 14.5701 4.92002 14.6001 4.87002C14.6301 4.83002 14.6401 4.78002 14.6601 4.73002C14.6701 4.70002 14.6901 4.67002 14.7001 4.64002C14.7001 4.62002 14.7001 4.61002 14.7001 4.59002C14.7101 4.54002 14.7101 4.49002 14.7001 4.44002C14.7001 4.39002 14.7001 4.35002 14.6901 4.30002C14.6801 4.26002 14.6601 4.22002 14.6401 4.17002C14.6201 4.12002 14.6001 4.07002 14.5701 4.03002C14.5701 4.02002 14.5701 4.01002 14.5601 4.00002L12.5801 1.53002C12.3201 1.21002 11.8501 1.15002 11.5301 1.41002C11.2101 1.67002 11.1601 2.14002 11.4101 2.46002L12.2301 3.48002C12.1501 3.48002 12.0701 3.47002 11.9901 3.47002C6.6801 3.47002 2.3501 7.79002 2.3501 13.11C2.3501 18.43 6.6701 22.75 11.9901 22.75C17.3101 22.75 21.6301 18.43 21.6301 13.11C21.6401 11.04 20.9601 9.05002 19.6901 7.35002Z" />
</svg>

<?xml version="1.0" encoding="UTF-8"?>
<svg width="24" height="24" viewBox="0 0 24 24" xmlns="http://www.w3.org/2000/svg">
 <path d="m14.43 16.92h-2.29c-0.41 0-0.75-0.34-0.75-0.75s0.34-0.75 0.75-0.75h2.29c0.43 0 0.78-0.35 0.78-0.78s-0.35-0.78-0.78-0.78h-2.29c-0.24 0-0.47-0.12-0.61-0.31s-0.18-0.45-0.1-0.68l0.76-2.29c0.1-0.31 0.39-0.51 0.71-0.51h3.06c0.41 0 0.75 0.34 0.75 0.75s-0.34 0.75-0.75 0.75h-2.52l-0.26 0.79h1.25c1.26 0 2.28 1.02 2.28 2.28s-1.03 2.28-2.28 2.28z"/>
 <path d="m9.5399 16.92c-0.41 0-0.75-0.34-0.75-0.75v-3.39l-0.19 0.22c-0.28 0.31-0.75 0.33-1.06 0.06-0.3-0.28-0.33-0.75-0.05-1.06l1.5-1.67c0.21-0.23 0.54-0.31 0.83-0.2 0.28998 0.11 0.47998 0.39 0.47998 0.7v5.35c-0.01 0.41-0.33998 0.74-0.75998 0.74z"/>
 <path d="m19.69 7.35c-0.25-0.33-0.72-0.4-1.05-0.15s-0.4 0.72-0.15 1.05c1.08 1.44 1.65 3.12 1.65 4.86 0 4.49-3.65 8.14-8.14 8.14s-8.14-3.65-8.14-8.14c0-4.49 3.65-8.13 8.14-8.13 0.58 0 1.17 0.07 1.81 0.22 0.03 0.01 0.06 0 0.09 0s0.05 0.02 0.07 0.02c0.03 0 0.05-0.01 0.08-0.01s0.06-0.01 0.1-0.02c0.06-0.01 0.11-0.04 0.16-0.06 0.03-0.02 0.06-0.03 0.09-0.05 0.01-0.01 0.03-0.01 0.04-0.02 0.03-0.02 0.04-0.05 0.06-0.07 0.04-0.04 0.07-0.07 0.1-0.12 0.03-0.04 0.04-0.09 0.06-0.14 0.01-0.03 0.03-0.06 0.04-0.09v-0.05c0.01-0.05 0.01-0.1 0-0.15 0-0.05 0-0.09-0.01-0.14-0.01-0.04-0.03-0.08-0.05-0.13s-0.04-0.1-0.07-0.14c0-0.01 0-0.02-0.01-0.03l-1.98-2.47c-0.26-0.32-0.73-0.38-1.05-0.12s-0.37 0.73-0.12 1.05l0.82 1.02c-0.08 0-0.16-0.01-0.24-0.01-5.31 0-9.64 4.32-9.64 9.64 0 5.32 4.32 9.64 9.64 9.64s9.64-4.32 9.64-9.64c0.01-2.07-0.67-4.06-1.94-5.76z"/>
</svg>
